packages/core/src/svgs/tokens/branded/IDRT.svg

<svg width="24" height="24" viewBox="0 0 24 24" fill="none" xmlns="http://www.w3.org/2000/svg">
<path d="M19.2397 5.1042C20.1459 6.05572 20.8552 7.17673 21.3273 8.40296V8.41171C21.83 9.70886 22.0553 11.0971 21.9885 12.4867C21.9493 13.3651 21.7921 14.2341 21.521 15.0705C21.0636 16.4887 20.295 17.7866 19.2711 18.8693C18.2471 19.9518 16.994 20.7918 15.6035 21.3275C14.2129 21.8636 12.72 22.082 11.2341 21.9669C9.74823 21.8519 8.30682 21.4062 7.01533 20.6625C6.25012 20.2295 5.54672 19.6956 4.92407 19.0749C3.84382 17.9931 3.02596 16.6781 2.53336 15.2309C2.04077 13.7838 1.88653 12.2429 2.08252 10.7266C2.27849 9.21055 2.81948 7.75953 3.66389 6.48514C4.50829 5.21076 5.63365 4.14693 6.95345 3.37543C7.41309 3.10462 7.89407 2.87175 8.39158 2.67918C10.2366 1.96367 12.2526 1.81218 14.1841 2.24391C16.1153 2.67563 17.875 3.67114 19.2397 5.1042ZM8.46221 6.37795H5.12469V15.753H6.37469V12.003H8.46221L10.6753 15.753H12.3692L9.91594 11.6768C11.191 11.5636 11.6834 10.2123 11.6834 9.02796C11.6834 7.6617 11.0953 6.74045 9.8054 6.50546C9.36264 6.41969 8.91318 6.37699 8.46221 6.37795ZM10.2722 9.1773C10.2722 10.4736 9.05658 10.753 8.1722 10.753H6.37469V7.62796H8.32095C9.12975 7.6317 10.2722 8.05734 10.2722 9.1773ZM13.8748 8.87796H12.6247V18.253H13.8748V14.4355C14.4003 15.0887 15.4616 15.4229 16.286 15.4136C18.0822 15.4292 19.5172 13.8867 19.4997 12.1118C19.5216 10.3098 18.1547 8.78422 16.286 8.81608C15.4186 8.80358 14.3316 9.13486 13.8748 9.91172V8.87796ZM16.1623 10.128C17.0891 10.128 18.2498 10.6979 18.2498 12.1118C18.2498 13.2805 17.5973 14.168 16.286 14.1867C14.974 14.2055 14.4035 13.4323 14.1785 12.8255C13.7097 11.5611 14.6954 10.128 16.1623 10.128Z" fill="#BB4E42"/>
</svg>

<svg xmlns="http://www.w3.org/2000/svg" width="24" height="24" fill="none" viewBox="0 0 24 24">
    <path fill="#BB4E42" d="M19.24 5.104a10 10 0 0 1 2.087 3.299v.009a10 10 0 0 1 .661 4.075 9.8 9.8 0 0 1-.467 2.583 9.99 9.99 0 0 1-10.287 6.897 10 10 0 0 1-4.219-1.304 9.8 9.8 0 0 1-2.09-1.588A10 10 0 0 1 8.391 2.679 9.99 9.99 0 0 1 19.24 5.104M8.462 6.378H5.125v9.375h1.25v-3.75h2.087l2.213 3.75h1.694l-2.453-4.076c1.275-.113 1.767-1.465 1.767-2.649 0-1.366-.588-2.288-1.878-2.523a7 7 0 0 0-1.343-.127m1.81 2.8c0 1.296-1.215 1.575-2.1 1.575H6.375V7.628H8.32c.809.004 1.951.43 1.951 1.55m3.603-.3h-1.25v9.375h1.25v-3.818c.525.654 1.587.988 2.411.979 1.796.015 3.231-1.527 3.214-3.302.022-1.802-1.345-3.328-3.214-3.296-.867-.012-1.954.319-2.411 1.096zm2.287 1.25c.927 0 2.088.57 2.088 1.984 0 1.168-.653 2.056-1.964 2.075-1.312.019-1.883-.755-2.108-1.361-.468-1.265.517-2.698 1.984-2.698"/>
</svg>
